assets/_sprites/github.svg

<?xml version="1.0" encoding="UTF-8"?>
<svg width="16px" height="16px" viewBox="0 0 16 16" version="1.1" xmlns="http://www.w3.org/2000/svg" xmlns:xlink="http://www.w3.org/1999/xlink">
    <!-- Generator: Sketch 43.1 (39012) - http://www.bohemiancoding.com/sketch -->
    <title>github</title>
    <desc>Created with Sketch.</desc>
    <defs></defs>
    <g id="Page-1" stroke="none" stroke-width="1" fill="none" fill-rule="evenodd">
        <g id="github" fill="#4078C0">
            <path d="M8,0 C3.581722,-2.705415e-16 5.41083001e-16,3.581722 0,8 C-0.000255213769,11.4435925 2.20314684,14.5009639 5.47,15.59 C5.87,15.665 6.017,15.418 6.017,15.205 C6.017,15.015 6.01,14.512 6.007,13.845 C3.781,14.328 3.312,12.772 3.312,12.772 C2.948,11.848 2.422,11.602 2.422,11.602 C1.697,11.106 2.478,11.116 2.478,11.116 C3.281,11.172 3.703,11.94 3.703,11.94 C4.417,13.163 5.576,12.81 6.033,12.605 C6.105,12.088 6.311,11.735 6.54,11.535 C4.763,11.335 2.896,10.647 2.896,7.582 C2.896,6.709 3.206,5.995 3.719,5.435 C3.629,5.233 3.359,4.42 3.789,3.318 C3.789,3.318 4.459,3.103 5.989,4.138 C6.64086457,3.96030281 7.31335112,3.86951712 7.989,3.868 C8.66464888,3.86951712 9.33713543,3.96030281 9.989,4.138 C11.509,3.103 12.179,3.318 12.179,3.318 C12.609,4.42 12.339,5.233 12.259,5.435 C12.7973248,6.01916843 13.0908503,6.78770411 13.079,7.582 C13.079,10.655 11.209,11.332 9.429,11.529 C9.709,11.769 9.969,12.259 9.969,13.009 C9.969,14.079 9.959,14.939 9.959,15.199 C9.959,15.409 10.099,15.659 10.509,15.579 C13.7857301,14.5059471 16.0012504,11.4479561 16,8 C16,3.581722 12.418278,2.705415e-16 8,0"></path>
        </g>
    </g>
</svg>

<svg viewBox="0 0 16 16" xmlns="http://www.w3.org/2000/svg" fill-rule="evenodd" clip-rule="evenodd" stroke-linejoin="round" stroke-miterlimit="1.414"><path d="M8 0a8 8 0 0 0-8 8 8 8 0 0 0 5.47 7.59c.4.075.547-.172.547-.385 0-.19-.007-.693-.01-1.36-2.226.483-2.695-1.073-2.695-1.073-.364-.924-.89-1.17-.89-1.17-.725-.496.056-.486.056-.486.803.056 1.225.824 1.225.824.714 1.223 1.873.87 2.33.665.072-.517.278-.87.507-1.07-1.777-.2-3.644-.888-3.644-3.953 0-.873.31-1.587.823-2.147-.09-.202-.36-1.015.07-2.117 0 0 .67-.215 2.2.82a7.67 7.67 0 0 1 2-.27 7.67 7.67 0 0 1 2 .27c1.52-1.035 2.19-.82 2.19-.82.43 1.102.16 1.915.08 2.117a3.1 3.1 0 0 1 .82 2.147c0 3.073-1.87 3.75-3.65 3.947.28.24.54.73.54 1.48 0 1.07-.01 1.93-.01 2.19 0 .21.14.46.55.38A7.972 7.972 0 0 0 16 8a8 8 0 0 0-8-8"/></svg>
